images/heart8.svg

<svg width="370" height="70" viewBox="0 0 370 70" fill="none" xmlns="http://www.w3.org/2000/svg">
<path fill-rule="evenodd" clip-rule="evenodd" d="M0.00244141 1.19805H19.9167V11.0129L37.3126 1.43884L38.2266 0.937988L76.4508 21.974V68.9389H0.00244141V1.19805ZM3.75582 65.2113H72.6877V24.1604L38.2266 5.19527L16.1536 17.341V4.92558H3.75582V65.2113Z" fill="#1F305E"/>
<path d="M87.7016 6.11937H82.2271V1.78503H98.4853V6.11937H92.9816V20.3841H87.7016V6.11937Z" fill="#1F305E"/>
<path d="M115.17 13.3725V20.4037H120.431V1.81424H115.17V8.87439H108.422V1.81424H103.103V20.4037H108.422V13.3725H115.17Z" fill="#1F305E"/>
<path d="M140.142 20.3841H125.128V1.78503H139.772V6.19642H130.359V8.84518H139.227V13.1314H130.359V15.9439H140.142V20.3841Z" fill="#1F305E"/>
<path d="M347.308 69.4016C350.186 69.4016 352.801 68.5732 354.95 66.4735L351.8 62.9675C350.429 64.3449 348.591 64.8842 347.308 64.8842C343.554 64.8842 342.251 62.1006 342.222 59.6541C342.193 57.2077 343.642 54.241 347.308 54.241C348.591 54.241 350.011 54.5878 351.362 55.8881L354.678 52.6518C352.539 50.5713 350.059 49.6274 347.308 49.6274C340.151 49.6274 336.864 54.7708 336.893 59.6252C336.922 64.7398 339.83 69.4016 347.308 69.4016Z" fill="#1F305E"/>
<path fill-rule="evenodd" clip-rule="evenodd" d="M370.002 56.8415C370.002 61.2144 366.492 63.1119 363.089 63.1119C359.685 63.1119 356.165 61.2144 356.165 56.8415C356.165 52.4687 359.579 50.5519 363.089 50.5519C366.599 50.5519 370.002 52.4687 370.002 56.8415ZM365.588 56.8415C365.588 55.4546 364.674 54.2217 363.089 54.2217C361.504 54.2217 360.59 55.4642 360.59 56.8415C360.59 58.2189 361.494 59.4422 363.089 59.4422C364.684 59.4422 365.588 58.3056 365.588 56.8415Z" fill="#1F305E"/>
<path d="M358.401 65.173H367.765V67.9181H358.401V65.173Z" fill="#1F305E"/>
<path fill-rule="evenodd" clip-rule="evenodd" d="M103.492 27.8783C111.806 27.8783 118.584 31.5288 118.584 39.4173C118.584 42.538 117.631 45.7647 114.004 47.4213C117.864 49.4826 119.77 53.3064 119.77 57.0147C119.77 66.2516 111.271 69.016 103.677 69.0737H82.2361V27.8783H103.492ZM93.8172 43.5975H103.201C105.641 43.5975 106.944 42.355 106.944 40.5346C106.944 38.7141 105.632 37.2983 103.327 37.2983H93.8172V43.5975ZM93.8172 60.0102H103.735C106.701 60.0102 108.131 58.4209 108.131 56.1285C108.131 53.8362 106.643 52.1891 103.735 52.1891H93.8172V60.0102Z" fill="#1F305E"/>
<path d="M167.834 50.9461V27.9356H156.127V50.9461C156.127 57.1875 152.976 60.0097 148.231 60.0097C143.486 60.0097 140.335 57.3031 140.335 50.8402V27.9452H128.637V50.8402C128.637 63.429 136.066 69.9594 148.241 69.9594C160.415 69.9594 167.892 63.1304 167.834 50.9461Z" fill="#1F305E"/>
<path d="M205.369 50.4168C205.138 46.6317 205.084 44.6397 205.045 43.1995C205.033 42.7633 205.023 42.3777 205.009 42.0082V27.8783H216.833V69.0737H206.857L189.519 46.8916L189.694 55.8974V69.0834H177.812V27.8783H187.788L205.369 50.4168Z" fill="#1F305E"/>
<path d="M247.754 48.057L264.635 28.5911V27.8783H250.555L250.08 28.4696L250.077 28.4742C246.705 32.6771 243.032 37.2552 239.625 41.4207V27.8783H227.869V69.0737H239.625V55.3676L251.498 69.0737H266.055V68.361C260.298 61.8306 253.579 54.4141 247.754 48.057Z" fill="#1F305E"/>
<path d="M284.88 27.8783H273.182V69.0737H284.88V27.8783Z" fill="#1F305E"/>
<path d="M295.149 69.0737H328.414V59.2396H306.73V53.0078H326.391V43.5397H306.73V37.645H327.587V27.8783H295.149V69.0737Z" fill="#1F305E"/>
</svg>

<svg width="370" height="70" fill="none" xmlns="http://www.w3.org/2000/svg"><path fill-rule="evenodd" clip-rule="evenodd" d="M.002 1.198h19.915v9.815l17.396-9.574.914-.501L76.45 21.974v46.965H.002V1.198Zm3.754 64.013h68.932v-41.05L38.227 5.194 16.154 17.341V4.926H3.756V65.21Z" fill="#1F305E"/><path d="M87.702 6.12h-5.475V1.784h16.258v4.334h-5.503v14.265h-5.28V6.12ZM115.17 13.373v7.03h5.261V1.815h-5.261v7.06h-6.748v-7.06h-5.319v18.59h5.319v-7.031h6.748ZM140.142 20.384h-15.014V1.785h14.644v4.411h-9.413v2.65h8.868v4.285h-8.868v2.813h9.783v4.44ZM347.308 69.402c2.878 0 5.493-.829 7.642-2.928l-3.15-3.507c-1.371 1.378-3.209 1.917-4.492 1.917-3.754 0-5.057-2.783-5.086-5.23-.029-2.446 1.42-5.413 5.086-5.413 1.283 0 2.703.347 4.054 1.647l3.316-3.236c-2.139-2.08-4.619-3.025-7.37-3.025-7.157 0-10.444 5.144-10.415 9.998.029 5.115 2.937 9.777 10.415 9.777Z" fill="#1F305E"/><path fill-rule="evenodd" clip-rule="evenodd" d="M370.002 56.842c0 4.372-3.51 6.27-6.913 6.27-3.404 0-6.924-1.898-6.924-6.27 0-4.373 3.414-6.29 6.924-6.29 3.51 0 6.913 1.917 6.913 6.29Zm-4.414 0c0-1.387-.914-2.62-2.499-2.62s-2.499 1.242-2.499 2.62c0 1.377.904 2.6 2.499 2.6 1.595 0 2.499-1.136 2.499-2.6Z" fill="#1F305E"/><path d="M358.401 65.173h9.364v2.745h-9.364v-2.745Z" fill="#1F305E"/><path fill-rule="evenodd" clip-rule="evenodd" d="M103.492 27.878c8.314 0 15.092 3.65 15.092 11.54 0 3.12-.953 6.347-4.58 8.003 3.86 2.062 5.766 5.885 5.766 9.594 0 9.237-8.499 12.001-16.093 12.059h-21.44V27.878h21.255Zm-9.675 15.72h9.384c2.44 0 3.743-1.243 3.743-3.063s-1.312-3.237-3.617-3.237h-9.51v6.3Zm0 16.412h9.918c2.966 0 4.396-1.59 4.396-3.881 0-2.293-1.488-3.94-4.396-3.94h-9.918v7.821Z" fill="#1F305E"/><path d="M167.834 50.946v-23.01h-11.707v23.01c0 6.242-3.151 9.064-7.896 9.064s-7.896-2.707-7.896-9.17V27.945h-11.698V50.84c0 12.589 7.429 19.12 19.604 19.12 12.174 0 19.651-6.83 19.593-19.014ZM205.369 50.417a188.853 188.853 0 0 1-.324-7.218c-.012-.436-.022-.821-.036-1.19v-14.13h11.824v41.195h-9.976l-17.338-22.182.175 9.005v13.186h-11.882V27.878h9.976l17.581 22.539ZM247.754 48.057l16.881-19.466v-.713h-14.08l-.475.592-.003.004c-3.372 4.203-7.045 8.781-10.452 12.947V27.878h-11.756v41.196h11.756V55.368l11.873 13.706h14.557v-.713c-5.757-6.53-12.476-13.947-18.301-20.304ZM284.88 27.878h-11.698v41.196h11.698V27.878ZM295.149 69.074h33.265V59.24H306.73v-6.232h19.661V43.54H306.73v-5.895h20.857v-9.767h-32.438v41.196Z" fill="#1F305E"/></svg>
